Flat-Remix-Dark/apps/scalable/amarok.svg

<svg xmlns="http://www.w3.org/2000/svg" xmlns:xlink="http://www.w3.org/1999/xlink" width="384pt" height="384pt" version="1.1" viewBox="0 0 384 384">
 <defs>
  <filter id="alpha" width="100%" height="100%" x="0%" y="0%">
   <feColorMatrix in="SourceGraphic" values="0 0 0 0 1 0 0 0 0 1 0 0 0 0 1 0 0 0 1 0"/>
  </filter>
  <mask id="mask0">
   <g filter="url(#alpha)">
    <rect width="384" height="384" style="fill-opacity:.2;fill:rgb(0%,0%,0%)"/>
   </g>
  </mask>
  <clipPath id="clip1">
   <rect width="384" height="384"/>
  </clipPath>
  <g id="surface5" clip-path="url(#clip1)">
   <path d="m342.67969 33.59375c-0.585938 1.945312-1.40625 3.773438-2.367188 5.460938-3.878906 6.84375-34.097656 65.007812-30.773438 70.710937 0.414063 0.703125 1.148438 1.289063 2.109376 1.78125 6.535156-18.417969 25.621093-55.117187 28.664062-60.492187 2.757812-4.863282 4.242188-10.902344 2.367188-17.460938zm28.734374 95.015625c-1.023437 2.523437-3.824218 4.761719-11.273437 6.234375-14.40625 2.851562-55.574219 30.230469-69.980469 53.039062-14.410156 22.808594-18.296875 108.91016-19.40625 119.17578-1.699218 16.164062 1.679688 46.589844-7.5 49.238281-23.140625 6.675781-84.453125 22.453125-142.49609-10.3125-55.9375-31.574219-73.113281-58.996094-77.273437-73.589844-0.777344 1.605469-1.292969 3.171875-1.3125 4.664063-0.140625 10.8125 11.441406 43.027344 78.582031 80.925781 58.046875 32.765625 119.35938 16.984375 142.5 10.3125 9.179688-2.648437 5.796875-33.074219 7.496094-49.242187 1.109375-10.261719 5-96.367188 19.40625-119.17578 14.410156-22.804687 55.574219-50.183594 69.984375-53.035156 14.40625-2.851562 11.648437-8.558594 11.648437-13.6875 0-1.226562-0.128906-2.824219-0.375-4.546875zm-354.56641 66.71875c-0.953125 0.492187-3.902344 1.835937-4.382812 2.132813-4.757813 2.9375 28.289062 38.472656 42 49.265624 4.535156-4.621093 8.101562-8.246093 5.0625-8.765624-4.953125-0.847657-31.621094-27.589844-42.679688-42.632813z" style="fill:rgb(0%,0%,0%)"/>
  </g>
  <mask id="mask1">
   <g filter="url(#alpha)">
    <rect width="384" height="384" style="fill-opacity:.2;fill:rgb(0%,0%,0%)"/>
   </g>
  </mask>
  <clipPath id="clip2">
   <rect width="384" height="384"/>
  </clipPath>
  <g id="surface8" clip-path="url(#clip2)">
   <path d="m203.71094 126.33203s-18.226563-2.707031-28.742188 7.4375c-10.515625 10.148438-19.632812 32.46875-18.929688 39.234375 0.699219 6.765625 21.734376-23 30.847657-25.027344 9.113281-2.03125 18.929687-16.914062 16.824219-21.644531z" style="fill:rgb(0%,0%,0%)"/>
  </g>
  <linearGradient id="linearGradient55" x1="213.773" x2="593.916" y1="219.207" y2="-392.779" gradientUnits="userSpaceOnUse">
   <stop style="stop-color:#213554" offset="0"/>
   <stop style="stop-color:#213554;stop-opacity:0" offset="1"/>
  </linearGradient>
 </defs>
 <use mask="url(#mask0)" xlink:href="#surface5"/>
 <path d="m213.14453 120.27734s-21.953125-3.386719-34.621093 9.316406c-12.667969 12.699219-23.648438 40.640625-22.800782 49.105469 0.84375 8.46875 26.175782-28.785157 37.15625-31.324219 10.976563-2.542969 22.800782-21.171875 20.265625-27.097656z" style="fill:rgb(0%,0%,0%)"/>
 <path d="m323.68359 0.00390625c-9.140625 0-26.878906 21.671875-33.527344 25.09375-6.65625 3.417969-59.300781 42.195313-64.28125 49.039063-4.992188 6.839843-11.640625 9.691406-18.839844 9.121093-7.210937-0.566406-29.972656-0.804687-37.738281 3.757813-7.75 4.5625-43.164063 41.867187-52.035156 46.425781-8.863281 4.5625-20.433594 6.898438-25.972657 7.46875-5.542968 0.570313-23.898437 21.609375-28.886718 25.601563-4.984375 3.992187-44.394532 21.542969-49.933594 24.960937-5.542969 3.421875 40.425781 51.339844 47.074219 52.480469 6.648437 1.140625-17.230469 16.261719-17.375 27.105469-0.140625 10.8125 11.433593 43.019531 78.578125 80.921875 58.046875 32.769531 119.36328 16.988281 142.50781 10.316406 9.179688-2.648437 5.804688-33.070313 7.503906-49.234375 1.109376-10.265625 4.988282-96.371094 19.394532-119.17969 14.40625-22.804687 55.585937-50.1875 69.996094-53.039062 14.40625-2.847656 11.636718-8.550781 11.636718-13.683594 0-5.128906-2.21875-16.535156-6.097656-18.246094-3.878906-1.710937-19.011719 8.5625-24 9.703126-4.988281 1.140624-28.816406 2.851562-32.140625-2.851563-3.324219-5.699219 26.878906-63.863281 30.753906-70.703125 3.875-6.84375 5.542969-15.96875-1.667969-25.660156-7.199218-9.695313-12.179687-19.390625-14.953124-19.390625z" style="fill:url(#linearGradient55)"/>
 <use mask="url(#mask1)" xlink:href="#surface8"/>
 <path d="m203.71094 120.32422s-18.226563-2.703125-28.742188 7.441406c-10.515625 10.148437-19.632812 32.46875-18.929688 39.234375 0.699219 6.761719 21.734376-23 30.847657-25.027344 9.113281-2.03125 18.929687-16.914062 16.824219-21.648437z" style="fill:rgb(100%,100%,100%)"/>
 <path d="m431.57812 0.005859375c-12.18749 0-35.83853 28.894538-44.70312 33.457032-8.875 4.557293-79.06834 56.261718-85.70898 65.386718-6.65624 9.119801-15.52021 12.920581-25.11914 12.160161-9.61459-0.7552-39.96419-1.07162-50.31836 5.01171-10.33334 6.08334-57.55079 55.82226-69.37891 61.9004-11.81771 6.08333-27.24543 9.19855-34.63086 9.95898-7.39061 0.76041-31.864585 28.81184-38.515625 34.13476-6.64584 5.32292-59.192712 28.72396-66.578125 33.28126-1.440955 0.88955-0.246434 4.05265 2.636719 8.55078 12.850534-6.72722 57.820616-26.92964 63.941406-31.83204 6.651041-5.32292 31.125005-33.37435 38.515625-34.13476 7.38542-0.76043 22.81315-3.87565 34.63086-9.95898 11.82812-6.07814 59.04557-55.81706 69.37891-61.9004 10.35417-6.08333 40.70377-5.76691 50.31836-5.01171 9.59893 0.76042 18.4629-3.04037 25.11914-12.16016 6.64064-9.125001 76.83398-60.829426 85.70898-65.386719 8.86459-4.562494 32.51563-33.457032 44.70312-33.457032l-0.00585 0.009766c3.69792 0 10.33854 12.926436 19.9375 25.853516 3.46302 4.65426 5.37267 9.207125 6.17968 13.558593 1.2967-7.121406 0.0558-15.178171-6.17968-23.558593-9.59896-12.92708-16.23958-25.853516-19.9375-25.853516l0.00585-0.009765625zm54.86719 144.96484c-6.50257-0.36921-24.62598 11.75976-30.86133 13.18555-6.25546 1.43037-34.72658 3.53059-41.77929-2.55078-1.31481 4.37363-1.80044 7.50633-1.07617 8.74805 4.4323 7.60416 36.20442 5.32356 42.85546 3.80273 6.65104-1.52084 26.82812-15.21874 32-12.9375 4.86242 2.14475 7.76732 15.71236 8.09766 23.01172 0.66692-2.80382 0.03125-5.80972 0.03125-8.68359 0-6.83855-2.95703-22.04688-8.12891-24.32813-0.32324-0.14258-0.70516-0.22343-1.13867-0.24805zm-410.43164 188.58594c-7.179458 7.54876-19.668587 18.81645-19.789063 27.85547-0.022066 1.69672 0.183489 3.80107 0.689453 6.25391 4.572598-13.96541 30.597839-31.00122 22.476563-32.39454-0.758812-0.13018-1.925793-0.74697-3.376953-1.71484z" transform="scale(.75)" style="fill:#ffffff;opacity:.3"/>
</svg>

<svg xmlns="http://www.w3.org/2000/svg" xmlns:xlink="http://www.w3.org/1999/xlink" width="384pt" height="384pt" version="1.1" viewBox="0 0 384 384">
 <defs>
  <filter id="alpha" width="100%" height="100%" x="0%" y="0%" filterUnits="objectBoundingBox">
   <feColorMatrix in="SourceGraphic" type="matrix" values="0 0 0 0 1 0 0 0 0 1 0 0 0 0 1 0 0 0 1 0"/>
  </filter>
  <mask id="mask0">
   <g filter="url(#alpha)">
    <rect style="fill:rgb(0%,0%,0%);fill-opacity:0.2" width="384" height="384" x="0" y="0"/>
   </g>
  </mask>
  <clipPath id="clip1">
   <rect width="384" height="384" x="0" y="0"/>
  </clipPath>
  <g id="surface5" clip-path="url(#clip1)">
   <path d="M 342.679688 33.59375 C 342.09375 35.539062 341.273438 37.367188 340.3125 39.054688 C 336.433594 45.898438 306.214844 104.0625 309.539062 109.765625 C 309.953125 110.46875 310.6875 111.054688 311.648438 111.546875 C 318.183594 93.128906 337.269531 56.429688 340.3125 51.054688 C 343.070312 46.191406 344.554688 40.152344 342.679688 33.59375 Z M 371.414062 128.609375 C 370.390625 131.132812 367.589844 133.371094 360.140625 134.84375 C 345.734375 137.695312 304.566406 165.074219 290.160156 187.882812 C 275.75 210.691406 271.863281 296.792969 270.753906 307.058594 C 269.054688 323.222656 272.433594 353.648438 263.253906 356.296875 C 240.113281 362.972656 178.800781 378.75 120.757812 345.984375 C 64.820312 314.410156 47.644531 286.988281 43.484375 272.394531 C 42.707031 274 42.191406 275.566406 42.171875 277.058594 C 42.03125 287.871094 53.613281 320.085938 120.753906 357.984375 C 178.800781 390.75 240.113281 374.96875 263.253906 368.296875 C 272.433594 365.648438 269.050781 335.222656 270.75 319.054688 C 271.859375 308.792969 275.75 222.6875 290.15625 199.878906 C 304.566406 177.074219 345.730469 149.695312 360.140625 146.84375 C 374.546875 143.992188 371.789062 138.285156 371.789062 133.15625 C 371.789062 131.929688 371.660156 130.332031 371.414062 128.609375 Z M 16.847656 195.328125 C 15.894531 195.820312 12.945312 197.164062 12.464844 197.460938 C 7.707031 200.398438 40.753906 235.933594 54.464844 246.726562 C 59 242.105469 62.566406 238.480469 59.527344 237.960938 C 54.574219 237.113281 27.90625 210.371094 16.847656 195.328125 Z M 16.847656 195.328125" style="fill:rgb(0%,0%,0%)"/>
  </g>
  <mask id="mask1">
   <g filter="url(#alpha)">
    <rect style="fill:rgb(0%,0%,0%);fill-opacity:0.2" width="384" height="384" x="0" y="0"/>
   </g>
  </mask>
  <clipPath id="clip2">
   <rect width="384" height="384" x="0" y="0"/>
  </clipPath>
  <g id="surface8" clip-path="url(#clip2)">
   <path d="M 203.710938 126.332031 C 203.710938 126.332031 185.484375 123.625 174.96875 133.769531 C 164.453125 143.917969 155.335938 166.238281 156.039062 173.003906 C 156.738281 179.769531 177.773438 150.003906 186.886719 147.976562 C 196 145.945312 205.816406 131.0625 203.710938 126.332031 Z M 203.710938 126.332031" style="fill:rgb(0%,0%,0%)"/>
  </g>
 </defs>
 <g>
  <use mask="url(#mask0)" xlink:href="#surface5"/>
  <path d="M 213.144531 120.277344 C 213.144531 120.277344 191.191406 116.890625 178.523438 129.59375 C 165.855469 142.292969 154.875 170.234375 155.722656 178.699219 C 156.566406 187.167969 181.898438 149.914062 192.878906 147.375 C 203.855469 144.832031 215.679688 126.203125 213.144531 120.277344 Z M 213.144531 120.277344" style="fill:rgb(0%,0%,0%)"/>
  <path d="M 323.683594 0.00390625 C 314.542969 0.00390625 296.804688 21.675781 290.15625 25.097656 C 283.5 28.515625 230.855469 67.292969 225.875 74.136719 C 220.882812 80.976562 214.234375 83.828125 207.035156 83.257812 C 199.824219 82.691406 177.0625 82.453125 169.296875 87.015625 C 161.546875 91.578125 126.132812 128.882812 117.261719 133.441406 C 108.398438 138.003906 96.828125 140.339844 91.289062 140.910156 C 85.746094 141.480469 67.390625 162.519531 62.402344 166.511719 C 57.417969 170.503906 18.007812 188.054688 12.46875 191.472656 C 6.925781 194.894531 52.894531 242.8125 59.542969 243.953125 C 66.191406 245.09375 42.3125 260.214844 42.167969 271.058594 C 42.027344 281.871094 53.601562 314.078125 120.746094 351.980469 C 178.792969 384.75 240.109375 368.96875 263.253906 362.296875 C 272.433594 359.648438 269.058594 329.226562 270.757812 313.0625 C 271.867188 302.796875 275.746094 216.691406 290.152344 193.882812 C 304.558594 171.078125 345.738281 143.695312 360.148438 140.84375 C 374.554688 137.996094 371.785156 132.292969 371.785156 127.160156 C 371.785156 122.03125 369.566406 110.625 365.6875 108.914062 C 361.808594 107.203125 346.675781 117.476562 341.6875 118.617188 C 336.699219 119.757812 312.871094 121.46875 309.546875 115.765625 C 306.222656 110.066406 336.425781 51.902344 340.300781 45.0625 C 344.175781 38.21875 345.84375 29.09375 338.632812 19.402344 C 331.433594 9.707031 326.453125 0.0117188 323.679688 0.0117188 Z M 323.683594 0.00390625" style="fill:rgb(13.333333%,21.176471%,33.72549%)"/>
  <use mask="url(#mask1)" xlink:href="#surface8"/>
  <path d="M 203.710938 120.324219 C 203.710938 120.324219 185.484375 117.621094 174.96875 127.765625 C 164.453125 137.914062 155.335938 160.234375 156.039062 167 C 156.738281 173.761719 177.773438 144 186.886719 141.972656 C 196 139.941406 205.816406 125.058594 203.710938 120.324219 Z M 203.710938 120.324219" style="fill:rgb(100%,100%,100%)"/>
 </g>
 <path d="M 431.57812 0.005859375 C 419.39063 0.005859375 395.73959 28.900397 386.875 33.462891 C 378 38.020184 307.80666 89.724609 301.16602 98.849609 C 294.50978 107.96941 285.64581 111.77019 276.04688 111.00977 C 266.43229 110.25457 236.08269 109.93815 225.72852 116.02148 C 215.39518 122.10482 168.17773 171.84374 156.34961 177.92188 C 144.5319 184.00521 129.10418 187.12043 121.71875 187.88086 C 114.32814 188.64127 89.854165 216.6927 83.203125 222.01562 C 76.557285 227.33854 24.010413 250.73958 16.625 255.29688 C 15.184045 256.18643 16.378566 259.34953 19.261719 263.84766 C 32.112253 257.12044 77.082335 236.91802 83.203125 232.01562 C 89.854166 226.6927 114.32813 198.64127 121.71875 197.88086 C 129.10417 197.12043 144.5319 194.00521 156.34961 187.92188 C 168.17773 181.84374 215.39518 132.10482 225.72852 126.02148 C 236.08269 119.93815 266.43229 120.25457 276.04688 121.00977 C 285.64581 121.77019 294.50978 117.9694 301.16602 108.84961 C 307.80666 99.724609 378 48.020184 386.875 43.462891 C 395.73959 38.900397 419.39063 10.005859 431.57812 10.005859 L 431.57227 10.015625 C 435.27019 10.015625 441.91081 22.942061 451.50977 35.869141 C 454.97279 40.523401 456.88244 45.076266 457.68945 49.427734 C 458.98615 42.306328 457.74525 34.249563 451.50977 25.869141 C 441.91081 12.942061 435.27019 0.015625 431.57227 0.015625 L 431.57812 0.005859375 z M 486.44531 144.9707 C 479.94274 144.60149 461.81933 156.73046 455.58398 158.15625 C 449.32852 159.58662 420.8574 161.68684 413.80469 155.60547 C 412.48988 159.9791 412.00425 163.1118 412.72852 164.35352 C 417.16082 171.95768 448.93294 169.67708 455.58398 168.15625 C 462.23502 166.63541 482.4121 152.93751 487.58398 155.21875 C 492.4464 157.3635 495.3513 170.93111 495.68164 178.23047 C 496.34856 175.42665 495.71289 172.42075 495.71289 169.54688 C 495.71289 162.70833 492.75586 147.5 487.58398 145.21875 C 487.26074 145.07617 486.87882 144.99532 486.44531 144.9707 z M 76.013672 333.55664 C 68.834214 341.1054 56.345085 352.37309 56.224609 361.41211 C 56.202543 363.10883 56.408098 365.21318 56.914062 367.66602 C 61.48666 353.70061 87.511901 336.6648 79.390625 335.27148 C 78.631813 335.1413 77.464832 334.52451 76.013672 333.55664 z" transform="scale(0.75)" style="fill:#ffffff;opacity:0.3"/>
</svg>
